_icons/SVG/522-blitzle.svg

<svg xmlns="http://www.w3.org/2000/svg" viewBox="0 0 32 32"><title>522-blitzle</title><path d="M11.866,27.76943a20.22155,20.22155,0,0,1-.08583,2.58359,2.09784,2.09784,0,0,1,.88882-.202,1.996,1.996,0,0,1,1.84781,1.1609,8.94365,8.94365,0,0,0,.23342-3.39286c-.27808.0201-.5555.04251-.83868.04251A11.55025,11.55025,0,0,1,11.866,27.76943Z" style="fill:#d1d4d4"/><path d="M9.82731,20.76546c-.0829,2.50822,1.60306,5.396,1.77237,5.71024a2.9136,2.9136,0,0,1,.26628,1.29373,11.55025,11.55025,0,0,0,2.04554.19215c.28318,0,.5606-.02241.83868-.04251a34.92128,34.92128,0,0,0-.66532-4.45317H16v-2.2A37.99676,37.99676,0,0,1,9.82731,20.76546Z" style="fill:#5a5353"/><path d="M10.34807,18.86041a3.79407,3.79407,0,0,0-.52076,1.905A37.99676,37.99676,0,0,0,16,21.26586V19.275A38.36664,38.36664,0,0,1,10.34807,18.86041Z" style="fill:#dadddc"/><path d="M12.02686,16.81188c.04655.24208.0898.4671.1219.63442a3.50677,3.50677,0,0,0-1.80069,1.41411A38.36664,38.36664,0,0,0,16,19.275V17.10345A26.96186,26.96186,0,0,1,12.02686,16.81188Z" style="fill:#635c5c"/><path d="M11.69854,15.10328c.08867.46131.22,1.145.32832,1.7086A26.96186,26.96186,0,0,0,16,17.10345V15.44888A26.727,26.727,0,0,1,11.69854,15.10328Z" style="fill:#e3e5e5"/><path d="M11.59968,14.58894l.09886.51434A26.727,26.727,0,0,0,16,15.44888V6.96918C5.76249,6.96918,6.51383,14.58894,11.59968,14.58894Z" style="fill:#6d6666"/><path d="M12.669,30.151a2.09784,2.09784,0,0,0-.88882.202c-.081.92592-.18045,1.647-.18045,1.647h2.48518a1.63057,1.63057,0,0,0,.4319-.68807A1.996,1.996,0,0,0,12.669,30.151Z" style="fill:#373f3f"/><ellipse cx="11.64291" cy="10.66476" rx="1.87831" ry="1.82874" style="fill:#ffe28a"/><path d="M13.91943,12.33158A1.89672,1.89672,0,0,0,16,13.96032V10.70284A1.89672,1.89672,0,0,0,13.91943,12.33158Z" style="fill:#373f3f"/><ellipse cx="12.22086" cy="10.70286" rx="1.30037" ry="1.29536" style="fill:#65a9dc"/><ellipse cx="12.36534" cy="10.56952" rx="0.46235" ry="0.62863" style="fill:#373f3f"/><path d="M20.134,27.76943a20.22155,20.22155,0,0,0,.08583,2.58359,2.09784,2.09784,0,0,0-.88882-.202,1.996,1.996,0,0,0-1.84781,1.1609,8.94365,8.94365,0,0,1-.23342-3.39286c.27808.0201.5555.04251.83868.04251A11.55025,11.55025,0,0,0,20.134,27.76943Z" style="fill:#c8cccb"/><path d="M22.17269,20.76546c.0829,2.50822-1.60306,5.396-1.77237,5.71024a2.9136,2.9136,0,0,0-.26628,1.29373,11.55025,11.55025,0,0,1-2.04554.19215c-.28318,0-.5606-.02241-.83868-.04251a34.92128,34.92128,0,0,1,.66532-4.45317H16v-2.2A37.99676,37.99676,0,0,0,22.17269,20.76546Z" style="fill:#4f4949"/><path d="M21.65193,18.86041a3.79407,3.79407,0,0,1,.52076,1.905A37.99676,37.99676,0,0,1,16,21.26586V19.275A38.36664,38.36664,0,0,0,21.65193,18.86041Z" style="fill:#d1d4d4"/><path d="M19.97314,16.81188c-.04655.24208-.0898.4671-.1219.63442a3.50677,3.50677,0,0,1,1.80069,1.41411A38.36664,38.36664,0,0,1,16,19.275V17.10345A26.96186,26.96186,0,0,0,19.97314,16.81188Z" style="fill:#5a5353"/><path d="M20.30146,15.10328c-.08867.46131-.22,1.145-.32832,1.7086A26.96186,26.96186,0,0,1,16,17.10345V15.44888A26.727,26.727,0,0,0,20.30146,15.10328Z" style="fill:#dadddc"/><path d="M20.40032,14.58894l-.09886.51434A26.727,26.727,0,0,1,16,15.44888V6.96918C26.23751,6.96918,25.48617,14.58894,20.40032,14.58894Z" style="fill:#635c5c"/><path d="M19.33105,30.151a2.09784,2.09784,0,0,1,.88882.202c.081.92592.18045,1.647.18045,1.647H17.91514a1.63057,1.63057,0,0,1-.4319-.68807A1.996,1.996,0,0,1,19.33105,30.151Z" style="fill:#2b3332"/><ellipse cx="20.35709" cy="10.66476" rx="1.87831" ry="1.82874" style="fill:#ffd96c"/><path d="M18.08057,12.33158A1.89672,1.89672,0,0,1,16,13.96032V10.70284A1.89672,1.89672,0,0,1,18.08057,12.33158Z" style="fill:#2b3332"/><ellipse cx="19.77914" cy="10.70286" rx="1.30037" ry="1.29536" style="fill:#5ca3d5"/><ellipse cx="19.63466" cy="10.56952" rx="0.46235" ry="0.62863" style="fill:#2b3332"/><polygon points="17.76 8.543 14.24 8.543 14.24 4.861 17.76 3.696 17.76 8.543" style="fill:#e3e5e5"/><polygon points="15.336 6.181 11.012 7.392 15.336 0 15.336 6.181" style="fill:#edeeee"/></svg>

<svg xmlns="http://www.w3.org/2000/svg" viewBox="0 0 32 32"><path d="M11.866 27.77a20.222 20.222 0 01-.086 2.583 2.098 2.098 0 01.889-.202 1.996 1.996 0 011.848 1.16 8.944 8.944 0 00.233-3.392c-.278.02-.555.043-.838.043a11.55 11.55 0 01-2.046-.193z" fill="#d1d4d4"/><path d="M9.827 20.765c-.083 2.509 1.603 5.396 1.773 5.71a2.914 2.914 0 01.266 1.294 11.55 11.55 0 002.046.193c.283 0 .56-.023.838-.043a34.921 34.921 0 00-.665-4.453H16v-2.2a37.997 37.997 0 01-6.173-.5z" fill="#5a5353"/><path d="M10.348 18.86a3.794 3.794 0 00-.52 1.905 37.997 37.997 0 006.172.5v-1.99a38.367 38.367 0 01-5.652-.415z" fill="#dadddc"/><path d="M12.027 16.812l.122.634a3.507 3.507 0 00-1.8 1.414 38.367 38.367 0 005.651.415v-2.172a26.962 26.962 0 01-3.973-.291z" fill="#635c5c"/><path d="M11.699 15.103l.328 1.709a26.962 26.962 0 003.973.291V15.45a26.727 26.727 0 01-4.301-.346z" fill="#e3e5e5"/><path d="M11.6 14.589l.099.514A26.727 26.727 0 0016 15.45V6.97c-10.238 0-9.486 7.62-4.4 7.62z" fill="#6d6666"/><path d="M12.669 30.151a2.098 2.098 0 00-.889.202C11.7 31.279 11.6 32 11.6 32h2.485a1.63 1.63 0 00.432-.688 1.996 1.996 0 00-1.848-1.161z" fill="#373f3f"/><ellipse cx="11.643" cy="10.665" rx="1.878" ry="1.829" fill="#ffe28a"/><path d="M13.92 12.332A1.897 1.897 0 0016 13.96v-3.257a1.897 1.897 0 00-2.08 1.629z" fill="#373f3f"/><ellipse cx="12.221" cy="10.703" rx="1.3" ry="1.295" fill="#65a9dc"/><ellipse cx="12.365" cy="10.57" rx=".462" ry=".629" fill="#373f3f"/><path d="M20.134 27.77a20.222 20.222 0 00.086 2.583 2.098 2.098 0 00-.889-.202 1.996 1.996 0 00-1.848 1.16 8.944 8.944 0 01-.233-3.392c.278.02.555.043.838.043a11.55 11.55 0 002.046-.193z" fill="#c8cccb"/><path d="M22.173 20.765c.083 2.509-1.603 5.396-1.773 5.71a2.914 2.914 0 00-.266 1.294 11.55 11.55 0 01-2.045.193c-.284 0-.561-.023-.84-.043a34.921 34.921 0 01.666-4.453H16v-2.2a37.997 37.997 0 006.173-.5z" fill="#4f4949"/><path d="M21.652 18.86a3.794 3.794 0 01.52 1.905 37.997 37.997 0 01-6.172.5v-1.99a38.367 38.367 0 005.652-.415z" fill="#d1d4d4"/><path d="M19.973 16.812l-.122.634a3.507 3.507 0 011.8 1.414 38.367 38.367 0 01-5.651.415v-2.172a26.962 26.962 0 003.973-.291z" fill="#5a5353"/><path d="M20.301 15.103l-.328 1.709a26.962 26.962 0 01-3.973.291V15.45a26.727 26.727 0 004.301-.346z" fill="#dadddc"/><path d="M20.4 14.589l-.099.514A26.727 26.727 0 0116 15.45V6.97c10.238 0 9.486 7.62 4.4 7.62z" fill="#635c5c"/><path d="M19.331 30.151a2.098 2.098 0 01.889.202c.08.926.18 1.647.18 1.647h-2.485a1.63 1.63 0 01-.432-.688 1.996 1.996 0 011.848-1.161z" fill="#2b3332"/><ellipse cx="20.357" cy="10.665" rx="1.878" ry="1.829" fill="#ffd96c"/><path d="M18.08 12.332A1.897 1.897 0 0116 13.96v-3.257a1.897 1.897 0 012.08 1.629z" fill="#2b3332"/><ellipse cx="19.779" cy="10.703" rx="1.3" ry="1.295" fill="#5ca3d5"/><ellipse cx="19.635" cy="10.57" rx=".462" ry=".629" fill="#2b3332"/><path fill="#e3e5e5" d="M17.76 8.543h-3.52V4.861l3.52-1.165v4.847z"/><path fill="#edeeee" d="M15.336 6.181l-4.324 1.211L15.336 0v6.181z"/></svg>
